public/assets/images/settings.svg

<svg width="24" height="25" viewBox="0 0 24 25" fill="none" xmlns="http://www.w3.org/2000/svg">
<path d="M19.4323 13.1812C19.4723 12.8612 19.5023 12.5412 19.5023 12.2012C19.5023 11.8612 19.4723 11.5412 19.4323 11.2212L21.5423 9.57117C21.7323 9.42117 21.7823 9.15117 21.6623 8.93117L19.6623 5.47117C19.5723 5.31117 19.4023 5.22117 19.2223 5.22117C19.1623 5.22117 19.1023 5.23117 19.0523 5.25117L16.5623 6.25117C16.0423 5.85117 15.4823 5.52117 14.8723 5.27117L14.4923 2.62117C14.4623 2.38117 14.2523 2.20117 14.0023 2.20117H10.0023C9.75228 2.20117 9.54228 2.38117 9.51228 2.62117L9.13228 5.27117C8.52228 5.52117 7.96228 5.86117 7.44228 6.25117L4.95228 5.25117C4.89228 5.23117 4.83228 5.22117 4.77228 5.22117C4.60228 5.22117 4.43228 5.31117 4.34228 5.47117L2.34228 8.93117C2.21228 9.15117 2.27228 9.42117 2.46228 9.57117L4.57228 11.2212C4.53228 11.5412 4.50228 11.8712 4.50228 12.2012C4.50228 12.5312 4.53228 12.8612 4.57228 13.1812L2.46228 14.8312C2.27228 14.9812 2.22228 15.2512 2.34228 15.4712L4.34228 18.9312C4.43228 19.0912 4.60228 19.1812 4.78228 19.1812C4.84228 19.1812 4.90228 19.1712 4.95228 19.1512L7.44228 18.1512C7.96228 18.5512 8.52228 18.8812 9.13228 19.1312L9.51228 21.7812C9.54228 22.0212 9.75228 22.2012 10.0023 22.2012H14.0023C14.2523 22.2012 14.4623 22.0212 14.4923 21.7812L14.8723 19.1312C15.4823 18.8812 16.0423 18.5412 16.5623 18.1512L19.0523 19.1512C19.1123 19.1712 19.1723 19.1812 19.2323 19.1812C19.4023 19.1812 19.5723 19.0912 19.6623 18.9312L21.6623 15.4712C21.7823 15.2512 21.7323 14.9812 21.5423 14.8312L19.4323 13.1812ZM17.4523 11.4712C17.4923 11.7812 17.5023 11.9912 17.5023 12.2012C17.5023 12.4112 17.4823 12.6312 17.4523 12.9312L17.3123 14.0612L18.2023 14.7612L19.2823 15.6012L18.5823 16.8112L17.3123 16.3012L16.2723 15.8812L15.3723 16.5612C14.9423 16.8812 14.5323 17.1212 14.1223 17.2912L13.0623 17.7212L12.9023 18.8512L12.7023 20.2012H11.3023L10.9523 17.7212L9.89228 17.2912C9.46228 17.1112 9.06228 16.8812 8.66228 16.5812L7.75228 15.8812L6.69228 16.3112L5.42228 16.8212L4.72228 15.6112L5.80228 14.7712L6.69228 14.0712L6.55228 12.9412C6.52228 12.6312 6.50228 12.4012 6.50228 12.2012C6.50228 12.0012 6.52228 11.7712 6.55228 11.4712L6.69228 10.3412L5.80228 9.64117L4.72228 8.80117L5.42228 7.59117L6.69228 8.10117L7.73228 8.52117L8.63228 7.84117C9.06228 7.52117 9.47228 7.28117 9.88228 7.11117L10.9423 6.68117L11.1023 5.55117L11.3023 4.20117H12.6923L13.0423 6.68117L14.1023 7.11117C14.5323 7.29117 14.9323 7.52117 15.3323 7.82117L16.2423 8.52117L17.3023 8.09117L18.5723 7.58117L19.2723 8.79117L18.2023 9.64117L17.3123 10.3412L17.4523 11.4712ZM12.0023 8.20117C9.79228 8.20117 8.00228 9.99117 8.00228 12.2012C8.00228 14.4112 9.79228 16.2012 12.0023 16.2012C14.2123 16.2012 16.0023 14.4112 16.0023 12.2012C16.0023 9.99117 14.2123 8.20117 12.0023 8.20117ZM12.0023 14.2012C10.9023 14.2012 10.0023 13.3012 10.0023 12.2012C10.0023 11.1012 10.9023 10.2012 12.0023 10.2012C13.1023 10.2012 14.0023 11.1012 14.0023 12.2012C14.0023 13.3012 13.1023 14.2012 12.0023 14.2012Z" fill="#A2A2FF"/>
</svg>

<svg width="24" height="25" fill="none" xmlns="http://www.w3.org/2000/svg"><path d="M19.432 13.181c.04-.32.07-.64.07-.98 0-.34-.03-.66-.07-.98l2.11-1.65c.19-.15.24-.42.12-.64l-2-3.46a.5.5 0 00-.61-.22l-2.49 1c-.52-.4-1.08-.73-1.69-.98l-.38-2.65a.488.488 0 00-.49-.42h-4c-.25 0-.46.18-.49.42l-.38 2.65c-.61.25-1.17.59-1.69.98l-2.49-1a.566.566 0 00-.18-.03c-.17 0-.34.09-.43.25l-2 3.46c-.13.22-.07.49.12.64l2.11 1.65c-.04.32-.07.65-.07.98 0 .33.03.66.07.98l-2.11 1.65c-.19.15-.24.42-.12.64l2 3.46a.5.5 0 00.61.22l2.49-1c.52.4 1.08.73 1.69.98l.38 2.65c.03.24.24.42.49.42h4c.25 0 .46-.18.49-.42l.38-2.65c.61-.25 1.17-.59 1.69-.98l2.49 1c.06.02.12.03.18.03.17 0 .34-.09.43-.25l2-3.46c.12-.22.07-.49-.12-.64l-2.11-1.65zm-1.98-1.71c.04.31.05.52.05.73 0 .21-.02.43-.05.73l-.14 1.13.89.7 1.08.84-.7 1.21-1.27-.51-1.04-.42-.9.68c-.43.32-.84.56-1.25.73l-1.06.43-.16 1.13-.2 1.35h-1.4l-.35-2.48-1.06-.43c-.43-.18-.83-.41-1.23-.71l-.91-.7-1.06.43-1.27.51-.7-1.21 1.08-.84.89-.7-.14-1.13c-.03-.31-.05-.54-.05-.74 0-.2.02-.43.05-.73l.14-1.13-.89-.7-1.08-.84.7-1.21 1.27.51 1.04.42.9-.68c.43-.32.84-.56 1.25-.73l1.06-.43.16-1.13.2-1.35h1.39l.35 2.48 1.06.43c.43.18.83.41 1.23.71l.91.7 1.06-.43 1.27-.51.7 1.21-1.07.85-.89.7.14 1.13zm-5.45-3.27c-2.21 0-4 1.79-4 4s1.79 4 4 4 4-1.79 4-4-1.79-4-4-4zm0 6c-1.1 0-2-.9-2-2s.9-2 2-2 2 .9 2 2-.9 2-2 2z" fill="#A2A2FF"/></svg>
